public/weblog.svg

<svg viewBox="0 0 152 36" xmlns="http://www.w3.org/2000/svg"><path d="m66.228 26.388h4.5665c1.2906 0 2.4066-0.1986 3.3491-0.5956 0.9589-0.3971 1.6942-0.96 2.2069-1.6866 0.5127-0.7276 0.7691-1.5796 0.7691-2.5549 0-1.0745-0.2815-1.9844-0.8433-2.7284-0.5618-0.7603-1.3636-1.2894-2.4065-1.5872 0.8771-0.3142 1.5545-0.8182 2.0345-1.5131s0.72-1.4967 0.72-2.4066c0-1.4051-0.5454-2.5211-1.6374-3.3491-0.7997-0.60436-1.8033-0.98836-3.0109-1.1509l-1.1542 3.528c0.3338 0.0699 0.6065 0.1789 0.816 0.3273 0.4145 0.2815 0.6207 0.72 0.6207 1.3146 0 0.5781-0.1985 1.0003-0.5956 1.2654-0.3971 0.264-1.0255 0.3971-1.8851 0.3971h-0.0371l-1.152 3.5215h1.6604c0.9098 0 1.5545 0.1418 1.9341 0.4221 0.3819 0.2804 0.5706 0.7604 0.5706 1.4389 0 0.6611-0.1975 1.1324-0.5946 1.4139-0.3807 0.2803-1.0178 0.4211-1.9101 0.4211h-2.8691l-1.152 3.5225z" clip-rule="evenodd" fill="#1D1D1D" fill-rule="evenodd" /><path d="m61.324 8.7273h-12.179v17.661h6.4037l1.1683-3.5716h-3.0327v-3.6219h4.2175l1.1672-3.5716h-5.3858v-3.324h6.4724l1.1683-3.5716zm-14.75 0h-4.4149l-3.7953 11.335-3.7953-11.335h-3.1745l-3.9437 11.137-3.6218-11.137h-4.7367l6.3 17.661h3.696l3.7702-10.492 3.6949 10.492h3.696l6.3251-17.661z" clip-rule="evenodd" fill="#34785C" fill-rule="evenodd" /><path d="m65.31 6.5454h4.1346l-7.4935 22.909h-4.1334l7.4923-22.909z" fill="#1D1D1D" /><path d="m9.6076 17.454 7.392-7.392-2.701-2.6869-10.069 10.08 10.08 10.079 2.6891-2.689-7.391-7.391z" fill="#1D1D1D" /><path d="m141.57 17.454-7.392 7.392 2.701 2.687 10.069-10.08-10.08-10.079-2.689 2.6891 7.391 7.3909z" fill="#1D1D1D" /><path d="m84.256 22.474v-13.765h-4.395v17.709h12.952v-3.9439h-8.5574z" fill="#1D1D1D" /><path d="m103.58 26.727c5.196 0 9.565-4.2016 9.565-9.1766 0-4.9749-4.369-9.1507-9.565-9.1507-5.1711 0-9.5403 4.1758-9.5403 9.1507 0 4.975 4.3692 9.1766 9.5403 9.1766zm0-3.9954c-2.715 0-5.016-2.3715-5.016-5.1812 0-2.7838 2.301-5.1553 5.016-5.1553 2.714 0 5.015 2.3715 5.015 5.1553 0 2.8097-2.301 5.1812-5.015 5.1812z" fill="#1D1D1D" /><path d="m123.47 19.587h3.8v2.2168c-0.879 0.5929-1.939 0.928-2.973 0.928-2.766 0-5.119-2.3715-5.119-5.1812 0-2.7838 2.353-5.1553 5.119-5.1553 1.525 0 3.076 0.7217 4.033 1.9075l3.232-2.8612c-1.81-1.9075-4.525-3.0417-7.265-3.0417-5.248 0-9.643 4.1758-9.643 9.1507 0 4.975 4.395 9.1766 9.643 9.1766 2.74 0 5.455-1.1342 7.265-3.0675v-7.3979h-8.092v3.3252z" fill="#1D1D1D" /></svg>

<svg width="152" height="36" viewBox="0 0 152 36" fill="none" xmlns="http://www.w3.org/2000/svg">
<path fill-rule="evenodd" clip-rule="evenodd" d="M66.228 26.388H70.7945C72.0851 26.388 73.2011 26.1894 74.1436 25.7924C75.1025 25.3953 75.8378 24.8324 76.3505 24.1058C76.8632 23.3782 77.1196 22.5262 77.1196 21.5509C77.1196 20.4764 76.8381 19.5665 76.2763 18.8225C75.7145 18.0622 74.9127 17.5331 73.8698 17.2353C74.7469 16.9211 75.4243 16.4171 75.9043 15.7222C76.3843 15.0273 76.6243 14.2255 76.6243 13.3156C76.6243 11.9105 76.0789 10.7945 74.9869 9.96654C74.1872 9.36218 73.1836 8.97818 71.976 8.81564L70.8218 12.3436C71.1556 12.4135 71.4283 12.5225 71.6378 12.6709C72.0523 12.9524 72.2585 13.3909 72.2585 13.9855C72.2585 14.5636 72.06 14.9858 71.6629 15.2509C71.2658 15.5149 70.6374 15.648 69.7778 15.648H69.7407L68.5887 19.1695H70.2491C71.1589 19.1695 71.8036 19.3113 72.1832 19.5916C72.5651 19.872 72.7538 20.352 72.7538 21.0305C72.7538 21.6916 72.5563 22.1629 72.1592 22.4444C71.7785 22.7247 71.1414 22.8655 70.2491 22.8655H67.38L66.228 26.388Z" fill="#1D1D1D"/>
<path fill-rule="evenodd" clip-rule="evenodd" d="M61.3243 8.72727H49.1454V26.388H55.5491L56.7174 22.8164H53.6847V19.1945H57.9022L59.0694 15.6229H53.6836V12.2989H60.156L61.3243 8.72727ZM46.5742 8.72727H42.1593L38.364 20.0618L34.5687 8.72727H31.3942L27.4505 19.8644L23.8287 8.72727H19.092L25.392 26.388H29.088L32.8582 15.8956L36.5531 26.388H40.2491L46.5742 8.72727Z" fill="#34785C"/>
<path d="M65.3105 6.54545H69.4451L61.9516 29.4545H57.8182L65.3105 6.54545Z" fill="#1D1D1D"/>
<path d="M9.60764 17.4545L16.9996 10.0625L14.2986 7.37564L4.22946 17.4556L14.3095 27.5345L16.9986 24.8455L9.60764 17.4545Z" fill="#1D1D1D"/>
<path d="M141.574 17.4545L134.182 24.8465L136.883 27.5335L146.952 17.4535L136.872 7.37454L134.183 10.0636L141.574 17.4545Z" fill="#1D1D1D"/>
<path d="M84.2561 22.4741V8.70932H79.8611V26.418H92.8135V22.4741H84.2561Z" fill="#1D1D1D"/>
<path d="M103.585 26.7273C108.781 26.7273 113.15 22.5257 113.15 17.5507C113.15 12.5758 108.781 8.4 103.585 8.4C98.4139 8.4 94.0447 12.5758 94.0447 17.5507C94.0447 22.5257 98.4139 26.7273 103.585 26.7273ZM103.585 22.7319C100.87 22.7319 98.569 20.3604 98.569 17.5507C98.569 14.7669 100.87 12.3954 103.585 12.3954C106.299 12.3954 108.6 14.7669 108.6 17.5507C108.6 20.3604 106.299 22.7319 103.585 22.7319Z" fill="#1D1D1D"/>
<path d="M123.472 19.5871H127.272V21.8039C126.393 22.3968 125.333 22.7319 124.299 22.7319C121.533 22.7319 119.18 20.3604 119.18 17.5507C119.18 14.7669 121.533 12.3954 124.299 12.3954C125.824 12.3954 127.375 13.1171 128.332 14.3029L131.564 11.4417C129.754 9.53418 127.039 8.4 124.299 8.4C119.051 8.4 114.656 12.5758 114.656 17.5507C114.656 22.5257 119.051 26.7273 124.299 26.7273C127.039 26.7273 129.754 25.5931 131.564 23.6598V16.2619H123.472V19.5871Z" fill="#1D1D1D"/>
</svg>
